X:1
T:The Foxhunter's
R:slip jig
M:9/8
L:1/8
K:D
|:~F2F FED G2E|~F2F FED EDE|~F2F FED GAB|AFD DEF ~E2D:|
|:~B2B BAG FGA|~B2E E2F G2B|ABc dcB ABc|d2D DEF ~E2D:|
|:~f2f fed ~g2e|~f2f fed ede|~f2f fed gab|afd def ~e2d:|
|:gfe dcB AGF|~B2E E2F G2B|ABc dcB ABc|d2D DEF ~E2D:|